elusive/lock.svg

<?xml version="1.0" encoding="UTF-8" standalone="no"?>
<!-- Generator: IcoMoon.io -->

<svg
   xmlns:dc="http://purl.org/dc/elements/1.1/"
   xmlns:cc="http://creativecommons.org/ns#"
   xmlns:rdf="http://www.w3.org/1999/02/22-rdf-syntax-ns#"
   xmlns:svg="http://www.w3.org/2000/svg"
   xmlns="http://www.w3.org/2000/svg"
   xmlns:sodipodi="http://sodipodi.sourceforge.net/DTD/sodipodi-0.dtd"
   xmlns:inkscape="http://www.inkscape.org/namespaces/inkscape"
   id="svg2"
   version="1.1"
   data-tags="remove-circle, cancel, close, remove, delete"
   height="1200"
   width="1200"
   data-du=""
   viewBox="0 0 1200 1200"
   inkscape:version="0.48.4 r9939"
   sodipodi:docname="lock.svg">
  <defs
     id="defs32">
    <pattern
       id="pattern13199"
       width="811.3138"
       patternUnits="userSpaceOnUse"
       patternTransform="translate(-1692.9959,113.8855)"
       height="483.7205">
      <path
         id="path13201"
         filter="url(#filter3767)"
         d="M241.8603,83.1823H569.4535A158.678,158.678 0 0 1 728.1315,241.8603V241.8603A158.678,158.678 0 0 1 569.4535,400.5382H241.8603A158.678,158.678 0 0 1 83.1823,241.8603V241.8603A158.678,158.678 0 0 1 241.8603,83.1823" />
    </pattern>
    <mask
       id="mask13195"
       maskUnits="userSpaceOnUse">
      <path
         id="path13197"
         d="m -957.1864,582.2458 40.9492,-299.4407 -144.6017,-8.9576 -10.2373,67.822 -12.7966,11.5169 -8.9576,216.2627 -65.2627,-21.7542 14.0763,-270.0085 -74.2204,-6.3983 -11.5169,28.1525 -14.0763,225.2203 -42.2288,-8.9576 2.5593,-250.8136 -6.3983,0 -7.678,-70.3814 -33.2712,1.2797 -1.2796,29.4322 -7.678,17.9153 -2.5593,189.3898 -26.8729,33.2712 2.5593,88.2966 40.9492,19.1949 34.5508,-46.0678 284.0848,76.7797 49.9068,-21.7542"
         inkscape:connector-curvature="0"
         style="fill:#ffffff;stroke:#000000" />
    </mask>
    <filter
       id="filter13191"
       y="-0.26210001"
       x="-0.12899999"
       width="1.2579"
       height="1.5242"
       color-interpolation-filters="sRGB">
      <feGaussianBlur
         id="feGaussianBlur13193"
         stdDeviation="34.659" />
    </filter>
    <inkscape:path-effect
       id="path-effect13189" />
  </defs>
  <sodipodi:namedview
     pagecolor="#ffffff"
     bordercolor="#666666"
     borderopacity="1"
     objecttolerance="10"
     gridtolerance="10"
     guidetolerance="10"
     inkscape:pageopacity="0"
     inkscape:pageshadow="2"
     inkscape:window-width="1535"
     inkscape:window-height="876"
     id="namedview30"
     showgrid="false"
     inkscape:zoom="0.52678571"
     inkscape:cx="809.57559"
     inkscape:cy="521.32561"
     inkscape:window-x="65"
     inkscape:window-y="24"
     inkscape:window-maximized="1"
     inkscape:current-layer="svg2" />
  <metadata
     id="metadata62">
    <rdf:RDF>
      <cc:Work
         rdf:about="">
        <dc:format>image/svg+xml</dc:format>
        <dc:type
           rdf:resource="http://purl.org/dc/dcmitype/StillImage" />
        <dc:title />
      </cc:Work>
    </rdf:RDF>
  </metadata>
  <path
     id="path13748"
     d="M 592.08985,0.00421289 C 442.66062,-0.70781311 311.45819,88.890148 248.07263,228.88513 215.47235,306.61649 217.41109,413.07277 218.92234,506.03259 l -166.62551,0 0,693.96741 1095.40637,0 0,-693.96741 -181.2006,0 0,-131.61563 c 0,-51.59841 -10.623,-99.22536 -30.46864,-145.53183 C 878.0151,95.93755 741.51909,0.71623889 592.08985,0.00421289 z m 0,220.97079711 c 87.2915,2.31678 150.96136,67.95397 154.76008,152.12336 l 0,1.31836 0,131.61562 -308.27516,0 0,-131.61562 c 8.23943,-91.6232 66.22337,-155.75875 153.51508,-153.44197 z"
     inkscape:connector-curvature="0"
     style="fill:currentColor" />
</svg>

<?xml version="1.0" encoding="utf-8"?>
<!-- Generator: Adobe Illustrator 13.0.0, SVG Export Plug-In . SVG Version: 6.00 Build 14948)  -->
<!DOCTYPE svg PUBLIC "-//W3C//DTD SVG 1.1//EN" "http://www.w3.org/Graphics/SVG/1.1/DTD/svg11.dtd">
<svg version="1.1"
	 id="svg2" inkscape:version="0.48.4 r9939" sodipodi:docname="lock.svg" xmlns:dc="http://purl.org/dc/elements/1.1/" xmlns:cc="http://creativecommons.org/ns#" xmlns:rdf="http://www.w3.org/1999/02/22-rdf-syntax-ns#" xmlns:svg="http://www.w3.org/2000/svg" xmlns:sodipodi="http://sodipodi.sourceforge.net/DTD/sodipodi-0.dtd" xmlns:inkscape="http://www.inkscape.org/namespaces/inkscape"
	 xmlns="http://www.w3.org/2000/svg" xmlns:xlink="http://www.w3.org/1999/xlink" x="0px" y="0px" width="1200px" height="1200px"
	 viewBox="0 0 1200 1200" enable-background="new 0 0 1200 1200" xml:space="preserve">
<path id="path13748" inkscape:connector-curvature="0" d="M592.09,0.004C442.66-0.708,311.458,88.89,248.073,228.885
	c-32.601,77.731-30.662,184.188-29.15,277.147H52.297V1200h1095.406V506.032h-181.2V374.417c0-51.599-10.623-99.226-30.469-145.532
	C878.015,95.938,741.52,0.716,592.09,0.004z M592.09,220.975c87.291,2.317,150.961,67.954,154.76,152.124v1.318v131.615H438.575
	V374.417C446.814,282.793,504.798,218.658,592.09,220.975L592.09,220.975z"/>
</svg>
